packages/icons/raw/imported/GenericPicture.svg

<svg width="32" height="32" viewBox="0 0 32 32" fill="none" xmlns="http://www.w3.org/2000/svg">
<path d="M6.5 9.42308H6H6.5ZM6.5 22.5769H6H6.5ZM22.5769 25.5V25V25.5ZM9.42308 25.5V26V25.5ZM25.5 9.42311L26 9.42311V9.42311H25.5ZM25.5 22.5769H25H25.5ZM22.5769 6.50003V6.00003V6.50003ZM9.42308 6.5L9.42308 7L9.42308 6.5ZM10.8846 15.2692L11.2382 14.9157C11.0429 14.7204 10.7263 14.7204 10.5311 14.9157L10.8846 15.2692ZM20.7618 25.8536C20.9571 26.0488 21.2737 26.0488 21.4689 25.8536C21.6642 25.6583 21.6642 25.3417 21.4689 25.1464L20.7618 25.8536ZM25.1465 22.1997C25.3417 22.395 25.6583 22.395 25.8536 22.1997C26.0488 22.0044 26.0488 21.6879 25.8536 21.4926L25.1465 22.1997ZM21.1154 17.4615L21.4689 17.108C21.2737 16.9127 20.9571 16.9127 20.7618 17.108L21.1154 17.4615ZM7.23077 18.9231L6.87722 18.5695L6.87721 18.5695L7.23077 18.9231ZM22.5769 25L9.42308 25L9.42308 26L22.5769 26V25ZM25 9.42311V22.5769H26V9.42311L25 9.42311ZM22.5769 6.00003L9.42309 6L9.42308 7L22.5769 7.00003L22.5769 6.00003ZM26 9.42311C26 7.5326 24.4674 6.00003 22.5769 6.00003L22.5769 7.00003C23.9152 7.00003 25 8.08488 25 9.42311H26ZM7 9.42308C7 8.08485 8.08485 7 9.42308 7L9.42309 6C7.53257 6 6 7.53256 6 9.42308H7ZM6 22.5769C6 24.4674 7.53256 26 9.42308 26V25C8.08485 25 7 23.9151 7 22.5769H6ZM22.5769 26C24.4674 26 26 24.4674 26 22.5769H25C25 23.9151 23.9152 25 22.5769 25V26ZM22.0769 11.6154C22.0769 12.55 21.3193 13.3077 20.3846 13.3077V14.3077C21.8715 14.3077 23.0769 13.1023 23.0769 11.6154H22.0769ZM20.3846 13.3077C19.45 13.3077 18.6923 12.55 18.6923 11.6154H17.6923C17.6923 13.1023 18.8977 14.3077 20.3846 14.3077V13.3077ZM18.6923 11.6154C18.6923 10.6807 19.45 9.92307 20.3846 9.92307V8.92307C18.8977 8.92307 17.6923 10.1285 17.6923 11.6154H18.6923ZM20.3846 9.92307C21.3193 9.92307 22.0769 10.6807 22.0769 11.6154H23.0769C23.0769 10.1285 21.8715 8.92307 20.3846 8.92307V9.92307ZM25.8536 21.4926L21.4689 17.108L20.7618 17.8151L25.1465 22.1997L25.8536 21.4926ZM10.5311 15.6228L16.7426 21.8343L17.4497 21.1272L11.2382 14.9157L10.5311 15.6228ZM16.7426 21.8343L20.7618 25.8536L21.4689 25.1464L17.4497 21.1272L16.7426 21.8343ZM20.7618 17.108L16.7426 21.1272L17.4497 21.8343L21.4689 17.8151L20.7618 17.108ZM7.58432 19.2766L11.2382 15.6228L10.5311 14.9157L6.87722 18.5695L7.58432 19.2766ZM6 9.42308L6 19.6538L7 19.6538L7 9.42308H6ZM6 19.6538L6 22.5769H7L7 19.6538L6 19.6538ZM6.87721 18.5695L6.14645 19.3003L6.85356 20.0074L7.58432 19.2766L6.87721 18.5695Z" fill="black"/>
</svg>

<svg width="32" height="32" fill="none" xmlns="http://www.w3.org/2000/svg"><path d="M6.5 9.423H6h.5Zm0 13.154H6h.5ZM22.577 25.5V25v.5Zm-13.154 0v.5-.5ZM25.5 9.423h.5-.5Zm0 13.154H25h.5ZM22.577 6.5V6v.5Zm-13.154 0V7v-.5Zm1.462 8.77.353-.354a.5.5 0 0 0-.707 0l.354.353Zm9.877 10.584a.5.5 0 0 0 .707-.708l-.707.708Zm4.384-3.654a.5.5 0 1 0 .708-.707l-.707.707Zm-4.03-4.738.353-.354a.5.5 0 0 0-.707 0l.353.354ZM7.23 18.922l-.354-.353.354.353ZM22.577 25H9.423v1h13.154v-1ZM25 9.423v13.154h1V9.423h-1ZM22.577 6H9.423v1h13.154V6ZM26 9.423A3.423 3.423 0 0 0 22.577 6v1A2.423 2.423 0 0 1 25 9.423h1Zm-19 0A2.423 2.423 0 0 1 9.423 7V6A3.423 3.423 0 0 0 6 9.423h1ZM6 22.577A3.423 3.423 0 0 0 9.423 26v-1A2.423 2.423 0 0 1 7 22.577H6ZM22.577 26A3.423 3.423 0 0 0 26 22.577h-1A2.423 2.423 0 0 1 22.577 25v1Zm-.5-14.385c0 .935-.758 1.693-1.692 1.693v1a2.692 2.692 0 0 0 2.692-2.693h-1Zm-1.692 1.693a1.692 1.692 0 0 1-1.693-1.693h-1a2.692 2.692 0 0 0 2.693 2.693v-1Zm-1.693-1.693c0-.934.758-1.692 1.693-1.692v-1a2.692 2.692 0 0 0-2.693 2.692h1Zm1.693-1.692c.934 0 1.692.758 1.692 1.692h1a2.692 2.692 0 0 0-2.692-2.692v1Zm5.469 11.57-4.385-4.385-.707.707 4.384 4.385.708-.707Zm-15.323-5.87 6.212 6.211.707-.707-6.212-6.211-.707.707Zm6.212 6.211 4.019 4.02.707-.708-4.02-4.019-.706.707Zm4.019-4.726-4.02 4.02.708.706 4.019-4.019-.707-.707ZM7.584 19.277l3.654-3.654-.707-.707-3.654 3.654.707.707ZM6 9.423v10.23h1V9.424H6Zm0 10.23v2.924h1v-2.923H6Zm.877-1.083-.73.73.707.707.73-.73-.707-.707Z" fill="#000"/></svg>
